src/status/symbolic/windows-quick-list-symbolic.svg

<svg width="16" height="16" version="1.1" xmlns="http://www.w3.org/2000/svg">
 <path d="m2 2c-1.108 0-2 0.892-2 2v5c0 1.108 0.892 2 2 2h8c1.108 0 2-0.892 2-2v-5c0-1.108-0.892-2-2-2h-8zm0 1h8c0.554 0 1 0.446 1 1v5c0 0.554-0.446 1-1 1h-8c-0.554 0-1-0.446-1-1v-5c0-0.554 0.446-1 1-1z" fill="#363636" stroke-linecap="round" stroke-linejoin="round"/>
 <path d="m13 5v1h1c0.554 0 1 0.446 1 1v5c0 0.554-0.446 1-1 1h-8c-0.554 0-1-0.446-1-1h-1c0 1.108 0.892 2 2 2h8c1.108 0 2-0.892 2-2v-5c0-1.108-0.892-2-2-2h-1z" fill="#363636" stroke-linecap="round" stroke-linejoin="round"/>
</svg>

<svg xmlns="http://www.w3.org/2000/svg" width="16" height="16">
    <path fill="#050505" fill-opacity=".7" d="M2 2C.892 2 0 2.892 0 4v5c0 1.108.892 2 2 2h8c1.108 0 2-.892 2-2V4c0-1.108-.892-2-2-2H2zm0 1h8c.554 0 1 .446 1 1v5c0 .554-.446 1-1 1H2c-.554 0-1-.446-1-1V4c0-.554.446-1 1-1z"/>
    <path fill="#050505" fill-opacity=".7" d="M13 5v1h1c.554 0 1 .446 1 1v5c0 .554-.446 1-1 1H6c-.554 0-1-.446-1-1H4c0 1.108.892 2 2 2h8c1.108 0 2-.892 2-2V7c0-1.108-.892-2-2-2h-1z"/>
</svg>
